!!!COM: Beethoven, Ludwig van
!!!CDT: 1770///-1827///
!!!ODT: 1798///-1800///
!!!OTL: String Quartet No. 1 in F Major, Op. 18, No. 1
!!!OPS: Op. 18
!!!ONM: No. 1
!!!OMV: Mvmt. 2
!!!OMD: Adagio affettuoso ed appassionato
!!!PDT: 1801///
!!!PPP: Vienna
!!!PPR: C. Haslinger qm Tobias
!!!ODE: Dem F&uuml;rsten von Lobkowitz gewidmet
!!!MPD: 1798///-1800///
**kern	**dynam	**kern	**dynam	**kern	**dynam	**kern	**dynam
*staff4	*staff4	*staff3	*staff3	*staff2	*staff2	*staff1	*staff1
*Icello	*Icello	*Iviola	*Iviola	*Ivioln	*Ivioln	*Ivioln	*Ivioln
*clefF4	*clefF4	*clefC3	*clefC3	*clefG2	*clefG2	*clefG2	*clefG2
*k[b-]	*k[b-]	*k[b-]	*k[b-]	*k[b-]	*k[b-]	*k[b-]	*k[b-]
*M9/8	*M9/8	*M9/8	*M9/8	*M9/8	*M9/8	*M9/8	*M9/8
*MM54	*MM54	*MM54	*MM54	*MM54	*MM54	*MM54	*MM54
(8D'\L	pp	(8F'/L	pp	(8A'/L	.	4.r	.
8D'\	.	8F'/	.	8A'/	.	.	.
8D'\J)	.	8F'/J)	.	(8A'/J)	.	.	.
(8F'\L	.	(8A'/L	.	8d'/L	.	4.r	.
8F'\	.	8A'/	.	8d'/	.	.	.
8F'\J)	.	8A'/J)	.	(8d'/J)	.	.	.
8E'\L	.	8G'/L	.	8c#'/L	.	4.r	.
8E'\	.	8G'/	.	8c#'/	.	.	.
&(8E'\J&)	.	&(8G'/J&)	.	8c#'/J)	.	.	.
=2	=2	=2	=2	=2	=2	=2	=2
8D\L	.	8F/L	.	8d/L	.	[2.a/	pp
8D\	.	8F/	.	8A/	.	.	.
8D\J	.	8F/J	.	8A/J	.	.	.
8F\L	.	8A/L	.	8d/L	.	.	.
8F\	.	8A/	.	8d/	.	.	.
8F\J	.	8A/J	.	8d/J	.	.	.
8E\L	.	8G/L	.	8c#/L	.	4.a/_	.
8E\	.	8G/	.	8c#/	.	.	.
8E\J	.	8G/J	.	8c#/J	.	.	.
=3	=3	=3	=3	=3	=3	=3	=3
8D\L	.	8F/L	.	8d/L	.	(4.a/]	.
8D\	.	8F/	.	8A/	.	.	.
8D\J	.	8F/J	.	8A/J	.	.	.
8F\L	.	8A/L	.	8d/L	.	4.dd\	.
8F\	.	8A/	.	8d/	.	.	.
8F\J	.	8A/J	.	8d/J	.	.	.
8A\L	.	8c#\L	.	8A/L 8e/	.	4.ee\)	.
8A\	.	8c#\	.	8A/ 8e/	.	.	.
8A\J	.	8c#\J	.	8A/J 8e/	.	.	.
=4	=4	=4	=4	=4	=4	=4	=4
8d\L	.	8d/L	.	8f/L	.	[4.ff\	.
8D\	.	8F/	.	8A/	.	.	.
8D\J	.	8F/J	.	8A/J	.	.	.
8D\L	.	8F/L	.	8A/L	.	(4ff\]	.
8D\	.	8F/	.	8A/	.	.	.
8D\J	.	8F/J	.	8A/J	.	16ee\LL	.
.	.	.	.	.	.	16dd\JJ)	.
8D\L	.	8F/L	.	8B-/L	.	(16dd\LL	.
.	.	.	.	.	.	32ee\L	.
.	.	.	.	.	.	32dd\J	.
8D\	.	8F/	.	8B-/	.	16cc#\	.
.	.	.	.	.	.	16dd\	.
8D\J	.	8F/J	.	8B-/J	.	16ff\	.
.	.	.	.	.	.	16ee\JJ)	.
=5	=5	=5	=5	=5	=5	=5	=5
8E\L	.	8G/L	.	8B-/L	.	(4.dd\	.
8E\	.	8G/	.	8B-/	.	.	.
8E\J	.	8G/J	.	8B-/J	.	.	.
8E\L	.	8G/L	.	8B-/L	.	[4.cc#\)	.
8E\	.	8G/	.	8b-/	.	.	.
8E\J	.	8G/J	.	8b-/J	.	.	.
8E\L	.	8G/L	.	(8b-/L	.	8cc#\L]	.
8E\	.	8G/	.	8g/	.	(16cc#\L	.
.	.	.	.	.	.	16dd\	.
8E\J	.	8G/J	.	8e/J)	.	16ee\	.
.	.	.	.	.	.	16ff\JJ)	.
=6	=6	=6	=6	=6	=6	=6	=6
8E\L	.	8G/L	.	8c#/L	.	[4.gg\	.
8E\	.	8G/	.	8c#/	.	.	.
8E\J	.	8G/J	.	8c#/J	.	.	.
8E\L	.	8G/L	.	8c#/L	.	8gg\L]	.
.	.	.	.	.	.	aaq/	.
8E\	.	8G/	.	8c#/	.	(16gg\L	.
.	.	.	.	.	.	16ff#\	.
8E\J	.	8G/J	.	8c#/J	.	16gg\	.
.	.	.	.	.	.	16aa\JJ)	.
8E\L	.	8G/L	.	8c#/L	.	(4bb-\	.
8E\	.	8G/	.	8c#/	.	.	.
8E\J	.	8G/J	.	8c#/J	.	8cc#\)	.
=7	=7	=7	=7	=7	=7	=7	=7
8F\L	.	8A/L	.	(8c#/L	.	(4.ee\	.
8F\	.	8A/	.	8d/)	.	.	.
8F\J	.	8A/J	.	8d/J	.	.	.
8F\L	.	(8A/L	.	8d/L	.	[4.dd\)	.
8F\	.	8A/	.	8d/	.	.	.
8F\J	.	8A/J	.	8d/J	.	.	.
(8F\L	.	8A/L	.	(8d/L	.	(8dd\L]	.
8E\	.	8G/	.	8c#/	.	8ee\	.
8D\J)	.	8F/J)	.	8d/J)	.	8ff\J)	.
=8	=8	=8	=8	=8	=8	=8	=8
8G/L	.	8B-/L	.	8d/L	.	(4.ff\	.
8GG/	.	8B-/	.	8d/	.	.	.
8GG/J	.	8B-/J	.	8d/J	.	.	.
8GG/L	.	8B-/L	.	8d/L	.	[4.ee\)	.
8GG/	.	8B-/	.	8d/	.	.	.
8GG/J	.	8B-/J	.	8d/J	.	.	.
8GG#/L	.	8Bn/L	.	8d/L	.	(8ee\L]	.
8GG#/	.	8B/	.	8d/	.	8ff\	.
8GG#/J	.	8B/J	.	8d/J	.	8dd\J)	.
=9	=9	=9	=9	=9	=9	=9	=9
4AA/	p	(8E/L	p	4c#/	p	4cc#\	p
.	.	8A/)	.	.	.	.	.
8r	.	8A'/J	.	8r	.	8r	.
8r	.	[4.A/	.	8r	.	8r	.
8C#/L	.	.	.	8a/L	.	(8aa\L	.
8E/J	.	.	.	8g/J	.	8gg\J	.
8D/L	.	(8A/L]	.	8f/L	.	8ff\L	.
8GG/	.	8B-/	.	8e/	.	8ee\	.
8GG#/J)	.	8Bn/J)	.	8d/J)	.	8dd\J)	.
=10	=10	=10	=10	=10	=10	=10	=10
8AA/L	.	[4.E/	.	4c#/	.	4cc#\	.
8BB-/	.	.	.	.	.	.	.
8GG#/J	.	.	.	8r	.	8r	.
8AA/L	.	8E/L]	.	4a/	.	(4aa\	.
8C#/	.	(8A'/	.	.	.	.	.
8E/J	.	8A'/J)	.	8g/	.	8gg\	.
8D/L	.	8A/L	.	8f/L	.	8ff\L	.
8GGn/	.	8B-/	.	8e/	.	8ee\	.
&(8GG#/J&)	.	8Bn/J	.	&(8d/J&)	.	8dd\J)	.
=11	=11	=11	=11	=11	=11	=11	=11
4AA/	.	4E/	.	4c#/	.	4cc#\	.
8r	.	8r	.	8r	.	8r	.
4r	.	4r	.	4r	.	4r	.
8r	.	8r	.	8r	.	8r	.
[4.A\	pp	(4.d\	pp	4.f/	pp	(4.b-\	pp
=12	=12	=12	=12	=12	=12	=12	=12
4A\]	.	4c#\)	.	&(4e/&)	.	&(4a/&))	.
8r	.	8r	.	8r	.	8r	.
4r	.	4r	.	4r	.	4r	.
8r	.	8r	.	8r	.	8r	.
4.BB-/	.	4.B-/	.	4.B-/	.	4.B-/	.
=13	=13	=13	=13	=13	=13	=13	=13
8AA/L	p	([4.A/	p	4A/	p	(8A/L	p
8C#/	.	.	.	.	.	8c#/	.
&(8E/J&)	.	.	.	8r	.	8e/J	.
[4.A\	.	8A/L]	.	8r	.	8a/L)	.
.	.	8G/	.	8c#/L	.	(16B-/L	.
.	.	.	.	.	.	16A/	.
.	.	8F/J	.	8d/J	.	16B-/	.
.	.	.	.	.	.	16A/JJ	.
8A\L]	.	8E/L	.	8e/L	.	16c#/LL	.
.	.	.	.	.	.	16A/	.
8A'\	.	8D/	.	8f/	.	16d/	.
.	.	.	.	.	.	16A/	.
8A'\J	.	8C#/J)	.	8g/J	.	16e/	.
.	.	.	.	.	.	16A/JJ)	.
=14	=14	=14	=14	=14	=14	=14	=14
*clefC4	*clefG2	*	*	*	*	*	*
[2.A/	pp	(8D'/L	pp	8f'/L	pp	8d/L	pp
.	.	8D'/	.	8f'/	.	(8a'/	.
.	.	8D'/J)	.	8f'/J	.	8a'/J)	.
.	.	8F/L	.	8d/L	.	(8a'/L	.
.	.	8F/	.	8d/	.	8a'/	.
.	.	8F/J	.	8d/J	.	8a'/J)	.
4.A/]	.	8E/L	.	8g/L	.	(8cc#'\L	.
.	.	8E/	.	8g/	.	8cc#'\	.
.	.	8E/J	.	8g/J	.	8cc#'\J)	.
=15	=15	=15	=15	=15	=15	=15	=15
4.A/	.	8D/L	.	8f/L	.	8dd\L	.
.	.	8D/	.	8f/	.	8a\	.
.	.	8D/J	.	8f/J	.	8a\J	.
4.d\	.	8F/L	.	8d/L	.	8a/L	.
.	.	8F/	.	8d/	.	8a/	.
.	.	8F/J	.	8d/J	.	8a/J	.
&(4.e\&)	.	8A/L	.	8g/L	.	8cc#\L	.
.	.	8A/	.	8g/	.	8cc#\	.
.	.	8A/J	.	8g/J	.	8cc#\J	.
=16	=16	=16	=16	=16	=16	=16	=16
[2.f\	p	8D/L	p	4.a/	p	4dd\	p
.	.	8d/	.	.	.	.	.
.	.	8d/J	.	.	.	8r	.
.	.	8d\L	.	4.b-\	.	4r	.
.	.	8d\	.	.	.	.	.
.	.	8d\J	.	.	.	8r	.
8f\L]	.	8d-\L	.	4.bn\	.	4r	.
8a-\	.	8d-\	.	.	.	.	.
&(8g\J&)	.	8d-\J	.	.	.	8r	.
=17	=17	=17	=17	=17	=17	=17	=17
[4.f\	.	8C/L	.	8cc/L	.	[2.bb-\	.
.	.	8C/	.	8g/	.	.	.
.	.	8C/J	.	8g/J	.	.	.
8f\L]	.	8C/L	.	8g/L	.	.	.
8e\	.	8C/	.	8g/	.	.	.
8d-\J	.	8C/J	.	8g/J	.	.	.
8c/L	.	8C/L	.	8g\L	.	(8bb-\L]	.
8B-/	.	8C/	.	8ee\	.	8ddd-\	.
&(8G/J&)	.	8C/J	.	8ee\J	.	8ccc\J)	.
*clefF4	*clefF4	*	*	*	*	*	*
=18	=18	=18	=18	=18	=18	=18	=18
4.G-\	.	8c\L	.	[2.ee-\	.	(4.bb-\	.
.	.	8c\	.	.	.	.	.
.	.	8c\J	.	.	.	.	.
&(8F/L&)	.	8c\L	.	.	.	8aa\L	.
8FF/	.	(8c\	.	.	.	8gg-\	.
8FF/J	.	8c\J	.	.	.	8ff\J	.
8FF/L	.	8c\L	.	8ee-\L]	.	8ee-\L	.
8FF/	.	8e-\)	.	8gg-\	.	8cc\	.
8FF/J	.	8c\J	.	8ff\J	.	8a\J)	.
=19	=19	=19	=19	=19	=19	=19	=19
8BB-/L	.	[2.F/	.	4.ee-\	.	4.a-/	.
8BB-/	.	.	.	.	.	.	.
8BB-/J	.	.	.	.	.	.	.
8BB-/L	.	.	.	[4.dd\	.	[4.aa-\	.
8BB-/	.	.	.	.	.	.	.
8BB-/J	.	.	.	.	.	.	.
8BBn/L	.	(8F/L]	.	8dd/L]	.	(16aa-\LL]	.
.	.	.	.	.	.	16gg\	.
8BB/	.	8d/)	.	8A-/ 8f/	.	16bb-\	.
.	.	.	.	.	.	16aa-\	.
8BB/J	.	8d/J	.	8A-/J 8f/	.	16gg\	.
.	.	.	.	.	.	16ff\JJ)	.
=20	=20	=20	=20	=20	=20	=20	=20
4C/	.	4c\	.	8G/ 8e/	.	4ee\	.
.	.	.	.	8bn\L	.	.	.
8r	.	8r	.	8cc\J	pp	8r	.
4r	.	4r	.	8f#/L	.	4r	.
.	.	.	.	8g/	.	.	.
8r	.	8r	.	8d#/J	.	8r	.
4r	.	4r	.	8e/L	.	4r	.
.	.	.	.	8Bn/	.	.	.
8r	.	8r	.	8c/J	.	8r	.
=21	=21	=21	=21	=21	=21	=21	=21
4.r	.	4r	.	[2.d-/	.	8r	.
.	.	.	.	.	.	(8ee\L	.
.	.	8r	.	.	.	8ff\J)	pp
4.r	.	8r	.	.	.	(8a/	.
.	.	8e\L	.	.	.	[4b-\)	.
.	.	8f\J	pp	.	.	.	.
4.r	.	8g\L	.	8d-/L]	.	8b-\L]	.
.	.	8a-\)	.	8d-'/	.	(8bn'\	.
.	.	8f\J	.	8d-'/J	.	8b'\J)	.
=22	=22	=22	=22	=22	=22	=22	=22
8C\L	pp	4e\	.	4c/	.	4cc\	.
8Bn\	.	.	.	.	.	.	.
8c\J	.	8r	.	8r	.	8r	.
8F#\L	.	4r	.	4r	.	4r	.
8G\	.	.	.	.	.	.	.
8D#\J	.	8r	.	8r	.	8r	.
8E/L	.	4r	.	4r	.	4r	.
8BBn/	.	.	.	.	.	.	.
&(8C/J&)	.	8r	.	8r	.	8r	.
=23	=23	=23	=23	=23	=23	=23	=23
[2.BB-/	.	8C/L	.	4r	.	8r	.
.	.	8E/	.	.	.	(8bbn\L	.
.	.	&(8G/J&)	.	8r	.	8ccc\J	.
.	.	8C/L	.	4r	.	8ff#\L	.
.	.	8E/	.	.	.	8gg\	.
.	.	&(8G/J&)	.	8r	.	8dd#\J	.
4.BB-/]	.	8C/L	.	16r	.	8ee\L	.
.	.	.	.	16c/LL	.	.	.
.	.	8E/	.	16Bn/	.	8bn\	.
.	.	.	.	16c/	.	.	.
.	.	&(8G/J&)	.	16e/	.	8cc\J)	.
.	.	.	.	16g/JJ	.	.	.
=24	=24	=24	=24	=24	=24	=24	=24
2.AA/	.	8C/L	.	4a/	.	8r	.
.	.	8F/	.	.	.	(8bbn\L	.
.	.	&(8A/J&)	.	8r	.	8ccc\J	.
.	.	8C/L	.	4r	.	8gg#\L	.
.	.	8F/	.	.	.	8aa\	.
.	.	&(8A/J&)	.	8r	.	8ee\J	.
&(4.AA/&)	.	8C/L	.	16r	.	8ff\L	.
.	.	.	.	16c/LL	.	.	.
.	.	8F/	.	16Bn/	.	8bn\	.
.	.	.	.	16c/	.	.	.
.	.	&(8A/J&)	.	16f/	.	8cc\J)	.
.	.	.	.	16a/JJ	.	.	.
=25	=25	=25	=25	=25	=25	=25	=25
2.EE/	.	8C/L	.	4b-\	.	8r	.
.	.	8G/	.	.	.	(8aa\L	.
.	.	&(8B-/J&)	.	8r	.	8bb-\J	.
.	.	8C/L	.	4r	.	8gg\L	.
.	.	8G/	.	.	.	8ee\	.
.	.	&(8B-/J&)	.	8r	.	8b-\J	.
&(4.CC/&)	.	8C/L	.	16r	.	8g/L	.
.	.	.	.	16e/LL	.	.	.
.	.	8G/	.	16cc/	.	8e/	.
.	.	.	.	16b-/	.	.	.
.	.	&(8B-/J&)	.	16cc/	.	8B-/J)	.
.	.	.	.	16b-/JJ	.	.	.
=26	=26	=26	=26	=26	=26	=26	=26
4FF/	p	8E/L	p	4.cc\	p	4A/	p
.	.	&(8c/&)	.	.	.	.	.
8r	.	8c/J	.	.	.	8r	.
4r	.	8g\L	.	4.b-\	.	4r	.
.	.	&(8c\&)	.	.	.	.	.
8r	.	8c\J	.	.	.	8r	.
4r	.	8f\L	.	8a/	.	4r	.
.	.	.	.	b-q/	.	.	.
.	.	&(8c\&)	.	16a/LL	.	.	.
.	.	.	.	16g/	.	.	.
8r	.	8c\J	.	16a/	.	8r	.
.	.	.	.	16b-/JJ	.	.	.
=27	=27	=27	=27	=27	=27	=27	=27
4.B-\	.	8e\L	.	4g/	.	(4.ddd\	.
.	.	&(8c\&)	.	.	.	.	.
.	.	8c\J	.	8r	.	.	.
4.A\	.	8f\L	.	4r	.	4.ccc\	.
.	.	&(8c\&)	.	.	.	.	.
.	.	8c\J	.	8r	.	.	.
&(4.E\&)	.	8g\L	.	4r	.	8bb-\L	.
.	.	.	.	.	.	cccq/	.
.	.	&(8c\&)	.	.	.	16bb-\L	.
.	.	.	.	.	.	16aa\	.
.	.	8c\J	.	8r	.	16bb-\	.
.	.	.	.	.	.	16ccc\JJ)	.
=28	=28	=28	=28	=28	=28	=28	=28
4F\	.	8a\L	.	8cc\L	.	4aa\	.
.	.	&(8c\&)	.	16ff\L	.	.	.
.	.	.	.	16ee\	.	.	.
8r	.	8c\J	.	16dd\	.	8r	.
.	.	.	.	16cc\JJ	.	.	.
4r	.	8e\L	.	16cc\LL	.	4r	.
.	.	.	.	16b-\	.	.	.
.	.	&(8c\&)	.	16gg\	.	.	.
.	.	.	.	16ee\	.	.	.
8r	.	8c\J	.	16cc\	.	8r	.
.	.	.	.	16b-\JJ	.	.	.
4r	.	8f\L	.	16b-\LL	.	4r	.
.	.	.	.	16a\	.	.	.
.	.	&(8c\&)	.	16ff\	.	.	.
.	.	.	.	16cc\	.	.	.
8r	.	8c\J	.	16b-\	.	8r	.
.	.	.	.	16a\JJ	.	.	.
=29	=29	=29	=29	=29	=29	=29	=29
4.B-\	.	4.e\	.	8g/L	.	(8ddd\L	.
.	.	.	.	8c/	.	16ggg\L	.
.	.	.	.	.	.	16fff\	.
.	.	.	.	8c'/J	.	16eee\	.
.	.	.	.	.	.	16ddd\JJ)	.
4.A\	.	4.f\	.	8a/L	.	(16ddd\LL	.
.	.	.	.	.	.	16ccc\	.
.	.	.	.	8c/	.	16fff\	.
.	.	.	.	.	.	16eee\	.
.	.	.	.	8c'/J	.	16ddd\	.
.	.	.	.	.	.	16ccc\JJ)	.
&(4.E\&)	.	&(4.g\&)	.	8b-/L	.	(16ccc\LL	.
.	.	.	.	.	.	16bb-\	.
.	.	.	.	8c/	.	16ggg\	.
.	.	.	.	.	.	16eee\	.
.	.	.	.	8c'/J	.	16ccc\	.
.	.	.	.	.	.	16bb-\JJ)	.
=30	=30	=30	=30	=30	=30	=30	=30
4F\	.	4f\	.	4c/ 4a/	.	(16aa\LL	.
.	.	.	.	.	.	16gg#\	.
.	.	.	.	.	.	16aa\	.
.	.	.	.	.	.	16ggn\	.
8r	.	8r	.	8r	.	16ff\	.
.	.	.	.	.	.	16ee\JJ	.
4r	.	4r	.	4r	.	16dd\LL	.
.	.	.	.	.	.	16cc#\	.
.	.	.	.	.	.	16dd\	.
.	.	.	.	.	.	16ccn\	.
8r	.	8r	.	8r	.	16b-\	.
.	.	.	.	.	.	16a\JJ	.
4r	.	4r	.	4r	.	16g/LL	.
.	.	.	.	.	.	16f#/	.
.	.	.	.	.	.	16g/	.
.	.	.	.	.	.	16fn/	.
8r	.	8r	.	8r	.	16e/)	.
.	.	.	.	.	.	16d/JJ	.
=31	=31	=31	=31	=31	=31	=31	=31
16A\LL	.	[4.A/	.	4r	.	(4c#/	.
16G#\	.	.	.	.	.	.	.
16A\	.	.	.	.	.	.	.
16Gn\	.	.	.	.	.	.	.
16F\	.	.	.	8r	.	16d/LL	.
16E\JJ	.	.	.	.	.	16e/JJ)	.
16D/LL	.	4A/]	.	4d/	.	(4f/	.
16C#/	.	.	.	.	.	.	.
16D/	.	.	.	.	.	.	.
16Cn/	.	.	.	.	.	.	.
16BB-/	.	16d/LL	.	16e/LL	.	16g/LL	.
&(16AA/JJ&)	.	16c/JJ	.	16f#/JJ	.	16a/JJ)	.
16GG/LL	.	16B-/LL	.	[4.g/	.	[4.b-/	.
16FF#/	.	16A/	.	.	.	.	.
16GG/	.	16B-/	.	.	.	.	.
16FFn/	.	16A/	.	.	.	.	.
16EE/	.	16G/	.	.	.	.	.
16DD/JJ	.	&(16F/JJ&)	.	.	.	.	.
=32	=32	=32	=32	=32	=32	=32	=32
4.CC/	.	16E/LL	.	16g/LL]	.	(2.b-/]	.
.	.	16F/	.	16f/	.	.	.
.	.	16G/	.	16e/	.	.	.
.	.	16F/	.	16f/	.	.	.
.	.	16E/	.	16g/	.	.	.
.	.	16F/JJ	.	16f/JJ	.	.	.
4.C/	.	16G/LL	.	16e/LL	.	.	.
.	.	16F/	.	16f/	.	.	.
.	.	16E/	.	16g/	.	.	.
.	.	16F/	.	16f/	.	.	.
.	.	16G/	.	16e/	.	.	.
.	.	16E/JJ	.	16g/JJ	.	.	.
&(4.D-/&)	.	16F/LL	.	4.f/	.	&(4.a-/&))	.
.	.	16E/	.	.	.	.	.
.	.	16F/	.	.	.	.	.
.	.	16G/	.	.	.	.	.
.	.	16A-/	.	.	.	.	.
.	.	&(16F/JJ&)	.	.	.	.	.
=33	=33	=33	=33	=33	=33	=33	=33
4.BB-/	.	4.D-/	.	16d-/LL	.	(4.g-/	.
.	.	.	.	16c/	.	.	.
.	.	.	.	16d-/	.	.	.
.	.	.	.	16c/	.	.	.
.	.	.	.	16d-/	.	.	.
.	.	.	.	16c/JJ	.	.	.
4.D-/	.	16F/LL	.	4.Bn/	.	[4.f/)	.
.	.	16E/	.	.	.	.	.
.	.	16F/	.	.	.	.	.
.	.	16E/	.	.	.	.	.
.	.	16F/	.	.	.	.	.
.	.	&(16E/JJ&)	.	.	.	.	.
&(4.C/&)	.	4c\	.	4.B-/	.	(8f/L]	.
.	.	.	.	.	.	8gn/	.
.	.	8c\	.	.	.	8e/J)	.
=34	=34	=34	=34	=34	=34	=34	=34
4FF'/	p	16cc\LL	p	4A/	p	4f/	p
.	.	16bn\	.	.	.	.	.
.	.	16cc\	.	.	.	.	.
.	.	16b-\	.	.	.	.	.
8r	.	16a\	.	8r	.	8r	.
.	.	&(16g\JJ&)	.	.	.	.	.
4r	.	16f\LL	.	16aa\LL	.	4r	.
.	.	16e\	.	16gg#\	.	.	.
.	.	16f\	.	16aa\	.	.	.
.	.	16e-\	.	16ggn\	.	.	.
8r	.	16d\	.	16ff\	.	(16ddd\LL	.
.	.	&(16c\JJ&)	.	16ee\JJ	.	16ccc#\	.
4BB-/	.	16B-/LL	.	16dd\LL	.	16ddd\	.
.	.	16A/	.	16cc#\	.	16cccn\	.
.	.	16B-/	.	16dd\	.	16bb-\	.
.	.	16A/	.	16ccn\	.	16aa\JJ)	.
16C/LL	.	16G/	.	16b-\	.	8r	.
&(16D/JJ&)	.	&(16F/JJ&)	.	16a\JJ	.	.	.
=35	=35	=35	=35	=35	=35	=35	=35
16E-/LL	.	8E-/L	.	8g/L	.	4.gg\	.
16D/	.	.	.	.	.	.	.
16E-/	.	&(8B-/&)	.	8e-/	.	.	.
16D/	.	.	.	.	.	.	.
16C/	.	8B-/J	.	8e-'/J	.	.	.
16BB-/JJ	.	.	.	.	.	.	.
16AA/LL	.	2.c\	.	2.e-/	.	4.gg-\	.
16BB-/	.	.	.	.	.	.	.
16AA/	.	.	.	.	.	.	.
16BB-/	.	.	.	.	.	.	.
16C/	.	.	.	.	.	.	.
16BB-/JJ	.	.	.	.	.	.	.
16AA/LL	.	.	.	.	.	[4.ff\	.
16GG#/	.	.	.	.	.	.	.
16AA/	.	.	.	.	.	.	.
16FF/	.	.	.	.	.	.	.
16GG#/	.	.	.	.	.	.	.
&(16AA/JJ&)	.	.	.	.	.	.	.
=36	=36	=36	=36	=36	=36	=36	=36
16BB-/LL	.	8.B-\L	.	8d-/L	.	(8ff\L]	.
16AA/	.	.	.	.	.	.	.
16BB-/	.	.	.	8dd-/	.	8bb-\)	.
16AA-/	.	16f\L	.	.	.	.	.
16GG/	.	16en\	.	8dd-'/J	.	8bb-'\J	.
16FF/JJ	.	&(16f\JJ&)	.	.	.	.	.
16EE/LL	.	4.g\	.	2.cc\	.	(4.bb-\	.
16CC/	.	.	.	.	.	.	.
16EE/	.	.	.	.	.	.	.
16GG/	.	.	.	.	.	.	.
16C/	.	.	.	.	.	.	.
16E/JJ	.	.	.	.	.	.	.
16F\LL	.	&(4.f\&)	.	.	.	4.aa-\)	.
16E\	.	.	.	.	.	.	.
16F\	.	.	.	.	.	.	.
16G\	.	.	.	.	.	.	.
16A-\	.	.	.	.	.	.	.
&(16F\JJ&)	.	.	.	.	.	.	.
=37	=37	=37	=37	=37	=37	=37	=37
4.BB-/	.	4.B-/	.	16dd-\LL	.	(4.gg-\	.
.	.	.	.	16cc\	.	.	.
.	.	.	.	16dd-\	.	.	.
.	.	.	.	16cc\	.	.	.
.	.	.	.	16dd-\	.	.	.
.	.	.	.	16cc\JJ	.	.	.
4.D-/	.	16F/LL	.	4.bn\	.	[4.ff\)	.
.	.	16E/	.	.	.	.	.
.	.	16F/	.	.	.	.	.
.	.	16E/	.	.	.	.	.
.	.	16F/	.	.	.	.	.
.	.	&(16A-/JJ&)	.	.	.	.	.
&(4.C/&)	.	4c\	.	4.b-\	.	(8ff\L]	.
.	.	.	.	.	.	8ggn\	.
.	.	8c\	.	.	.	8ee\J)	.
=38	=38	=38	=38	=38	=38	=38	=38
8FF/L	p	&(4.cc\&)	p	8a/L	p	8ff/L	p
8F/	.	.	.	8A/	.	8c/	.
8F/J	.	.	.	8A/J	.	8c/J	.
4F\	.	16bn\LL	.	4A/	.	4c/	.
.	.	&(16cc\&)	.	.	.	.	.
.	.	16dd\	.	.	.	.	.
.	.	&(16cc\&)	.	.	.	.	.
8r	.	16g#\	.	8r	.	8r	.
.	.	&(16a\JJ&)	.	.	.	.	.
4r	.	16b-\LL	.	4r	.	4r	.
.	.	&(16a\&)	.	.	.	.	.
.	.	16e\	.	.	.	.	.
.	.	&(16f\&)	.	.	.	.	.
8r	.	16gn\	.	8r	.	8r	.
.	.	&(16f\JJ&)	.	.	.	.	.
=39	=39	=39	=39	=39	=39	=39	=39
8FF/L	.	8B-/L	.	4.gg\	.	8e/L	.
8F/	.	8B-/	.	.	.	8e/	.
8F/J	.	8B-/J	.	.	.	8e/J	.
4F\	.	4B-/	.	16ff#\LL	.	4e/	.
.	.	.	.	16gg\	.	.	.
.	.	.	.	16aa\	.	.	.
.	.	.	.	16gg\	.	.	.
8r	.	8r	.	16dd#\	.	8r	.
.	.	.	.	16ee\JJ	.	.	.
4r	.	4r	.	16ffn\LL	.	4r	.
.	.	.	.	16ee\	.	.	.
.	.	.	.	16bn\	.	.	.
.	.	.	.	16cc\	.	.	.
8r	.	8r	.	16ddn\	.	8r	.
.	.	.	.	16cc\JJ	.	.	.
=40	=40	=40	=40	=40	=40	=40	=40
8F\L	.	8a\L	.	8cc\L	.	4.ccc\	.
8f\	.	8a\	.	8cc\	.	.	.
8f\J	.	8a\J	.	8cc\J	.	.	.
4f\	.	4a\	.	4cc\	.	(16bbn\LL	.
.	.	.	.	.	.	16ccc\)	.
.	.	.	.	.	.	(16ddd\	.
.	.	.	.	.	.	16ccc\)	.
8r	.	8r	.	8r	.	(16gg#\	.
.	.	.	.	.	.	16aa\JJ)	.
4r	.	4r	.	4r	.	(16bb-\LL	.
.	.	.	.	.	.	16aa\)	.
.	.	.	.	.	.	(16ee\	.
.	.	.	.	.	.	16ff\)	.
8r	.	8r	.	8r	.	(16ggn\	.
.	.	.	.	.	.	16ff\JJ)	.
=41	=41	=41	=41	=41	=41	=41	=41
4.r	.	4.r	.	4.r	.	(16cc#\LL	.
.	.	.	.	.	.	16dd\)	.
.	.	.	.	.	.	(16ee\	.
.	.	.	.	.	.	16dd\)	.
.	.	.	.	.	.	(16a\	.
.	.	.	.	.	.	16b-\JJ)	.
4.r	.	4.r	.	4.r	.	(16ccn/LL	.
.	.	.	.	.	.	16b-/)	.
.	.	.	.	.	.	(16f#/	.
.	.	.	.	.	.	16g/)	.
.	.	.	.	.	.	(16a/	.
.	.	.	.	.	.	16g/JJ)	.
4.r	.	4.r	.	4.r	.	(16f#/LL	.
.	.	.	.	.	.	16g/)	.
.	.	.	.	.	.	(16a/	.
.	.	.	.	.	.	16g/)	.
.	.	.	.	.	.	(16f#/	.
.	.	.	.	.	.	16g/JJ)	.
=42	=42	=42	=42	=42	=42	=42	=42
[2.C/	pp	4G/	.	4r	.	(4b-/	.
.	.	8F/	pp	8r	.	8a/)	pp
.	.	4E/	.	4g/	.	([4.g/	.
.	.	8D/	.	8f/	pp	.	.
4C/]	.	4C/	.	4e/	.	8g/L]	.
.	.	.	.	.	.	8a/	.
8BB-/	.	&(8E/&)	.	8G/	.	8b-/J)	.
=43	=43	=43	=43	=43	=43	=43	=43
4AA/	.	4F/	.	4c/	.	(4cc\	.
8GG/	.	8B-/	.	16d/LL	.	16dd\LL	.
.	.	.	.	16e/JJ	.	16ee\JJ)	.
4FF/	.	&([4.A/&)	.	[4.f/	.	[4.ff\	.
8EE/	.	.	.	.	.	.	.
4DD/	.	8A/L]	.	8f/L]	.	(8ff\L]	.
.	.	8d/	.	8f/	.	8a\)	.
&(8CC#/&)	.	&(8e/J&)	.	8g/J	.	8a\J	.
=44	=44	=44	=44	=44	=44	=44	=44
8DD/L	p	4d\	p	4f/	p	(4a/	p
8D/	.	.	.	.	.	.	.
.	.	.	.	.	.	b-q/LL	.
.	.	.	.	.	.	aq/	.
.	.	.	.	.	.	gq/	.
.	.	.	.	.	.	aq/JJ	.
&(8BB-/J&)	.	8d\	.	8g/	.	16cc\LL	.
.	.	.	.	.	.	16b-\JJ)	.
4.C/	.	4.c\	.	4.f/	.	[4.a/	.
&(4.CC/&)	.	&(4.B-\&)	.	4.e/	.	8.a/L]	.
.	.	.	.	.	.	(16g/L	.
.	.	.	.	.	.	16.dd/	.
.	.	.	.	.	.	32cc/JJk)	.
=45	=45	=45	=45	=45	=45	=45	=45
4FF/	.	4A/	.	4c/	.	4f/	.
8r	pp	8r	pp	8r	pp	8r	pp
4F\	.	4A/	.	4c/	.	4f/	.
8r	.	8r	.	8r	.	8r	.
4r	.	4r	.	4r	.	4r	.
8r	.	8r	.	8r	.	8r	.
=46	=46	=46	=46	=46	=46	=46	=46
4E-\	.	4c\	.	4A/ 4f/	.	4.ccc\	.
8r	pp	8r	pp	8r	pp	.	.
4e-\	.	4cc\	.	4a\ 4ff\	.	(16bbn\LL	pp
.	.	.	.	.	.	16ccc\)	.
.	.	.	.	.	.	(16ddd\	.
.	.	.	.	.	.	16ccc\)	.
8r	.	8r	.	8r	.	(16gg#\	.
.	.	.	.	.	.	16aa\JJ)	.
4r	.	4r	.	4.r	.	(16bb-\LL	.
.	.	.	.	.	.	16aa\)	.
.	.	.	.	.	.	(16ee\	.
.	.	.	.	.	.	16ff\)	.
8r	.	8r	.	.	.	(16ggn\	.
.	.	.	.	.	.	16ff\JJ)	.
=47	=47	=47	=47	=47	=47	=47	=47
4D\	.	4c\	.	4A/ 4f#/	.	4.ccc\	.
8r	.	8r	.	8r	.	.	.
4d\	.	4cc\	.	4a\ 4ff#\	.	(16bbn\LL	.
.	.	.	.	.	.	16ccc\)	.
.	.	.	.	.	.	(16gg#\	.
.	.	.	.	.	.	16aa\)	.
8r	.	8r	.	8r	.	(16ee#\	.
.	.	.	.	.	.	16ff#\JJ)	.
4r	.	4r	.	4r	.	(16cc#/LL	.
.	.	.	.	.	.	16dd/)	.
.	.	.	.	.	.	(16bn/	.
.	.	.	.	.	.	16ccn/)	.
8r	.	8r	.	8r	.	(16a/	.
.	.	.	.	.	.	16f#/JJ)	.
=48	=48	=48	=48	=48	=48	=48	=48
8GG/L	f	4.D/	f	4.d/	f	[2.d/ [2.dd/	f
8GG/	.	.	.	.	.	.	.
8GG/J	.	.	.	.	.	.	.
8BB-/L	.	4.G/	.	4.g/	.	.	.
8BB-/	.	.	.	.	.	.	.
8BB-/J	.	.	.	.	.	.	.
8FF#/L	.	&(4A/&)	.	4.a/	.	4.d/] 4.dd/]	.
8FF#/	.	.	.	.	.	.	.
8FF#/J	.	8r	.	.	.	.	.
=49	=49	=49	=49	=49	=49	=49	=49
8GG/L	.	[4.B-/	.	[4.b-\	.	(32dd\LLL	.
.	.	.	.	.	.	32cc#\	.
.	.	.	.	.	.	32dd\	.
.	.	.	.	.	.	32ff#\	.
8GG/	.	.	.	.	.	32gg\	.
.	.	.	.	.	.	32ff#\	.
.	.	.	.	.	.	32gg\	.
.	.	.	.	.	.	32aa\JJ	.
8GG/J	.	.	.	.	.	8bb-'\J)	.
8BB-/L	.	4B-/]	.	4b-\]	.	2.d/ 2.dd/	.
8BB-/	.	.	.	.	.	.	.
8BB-/J	.	16A/LL	.	16a/LL	.	.	.
.	.	&(16G/JJ&)	.	16g/JJ	.	.	.
8D\L	.	16G/LL	.	16g/LL	.	.	.
.	.	32A/L	.	32a/L	.	.	.
.	.	32G/J	.	32g/J	.	.	.
8D\	.	16F#/	.	16f#/	.	.	.
.	.	16G/	.	16g/	.	.	.
8D\J	.	16B-/	.	16b-/	.	.	.
.	.	16A/JJ	.	16a/JJ	.	.	.
=50	=50	=50	=50	=50	=50	=50	=50
8AA/L	.	4.G/	.	4.g/	.	(32dd\LLL	.
.	.	.	.	.	.	32cc#\	.
.	.	.	.	.	.	32dd\	.
.	.	.	.	.	.	32ee\	.
8AA/	.	.	.	.	.	32ff#\	.
.	.	.	.	.	.	32ee\	.
.	.	.	.	.	.	32ff#\	.
.	.	.	.	.	.	32gg\JJ	.
8AA/J	.	.	.	.	.	8aa'\J)	.
8C/L	.	&([4.F#/&)	.	[4.f#/	.	2.d/ 2.dd/	.
8C/	.	.	.	.	.	.	.
8C/J	.	.	.	.	.	.	.
8D\L	.	8F#/L]	.	8f#/L]	.	.	.
8D\	.	16F#/L	.	16f#/L	.	.	.
.	.	16G/	.	16g/	.	.	.
8D\J	.	16A/	.	16a/	.	.	.
.	.	&(16B-/JJ&)	.	16b-/JJ	.	.	.
=51	=51	=51	=51	=51	=51	=51	=51
8FF#/L	.	[4.c\	.	[4.cc\	.	(32dd\LLL	.
.	.	.	.	.	.	32cc#\	.
.	.	.	.	.	.	32dd\	.
.	.	.	.	.	.	32ee\	.
8FF#/	.	.	.	.	.	32ff#\	.
.	.	.	.	.	.	32ee\	.
.	.	.	.	.	.	32ff#\	.
.	.	.	.	.	.	32gg\JJ	.
8FF#/J	.	.	.	.	.	8aa'\J)	.
8AA/L	.	4c\]	.	4cc\]	.	2.f#/	.
8AA/	.	.	.	.	.	.	.
8AA/J	.	16d\LL	.	16dd\LL	.	.	.
.	.	16c\JJ	.	16cc\JJ	.	.	.
8D\L	.	16Bn\LL	.	16bn\LL	.	.	.
.	.	16c\	.	16cc\	.	.	.
8D\	.	16d\	.	16dd\	.	.	.
.	.	16c\	.	16cc\	.	.	.
8D\J	.	16e-\	.	16ee-\	.	.	.
.	.	&(16d\JJ&)	.	16dd\JJ	.	.	.
=52	=52	=52	=52	=52	=52	=52	=52
8FF/L	.	4.c\	.	4.cc\	.	(32dd\LLL	.
.	.	.	.	.	.	32cc#\	.
.	.	.	.	.	.	32dd\	.
.	.	.	.	.	.	32ee-\	.
8FF/	.	.	.	.	.	32ff\	.
.	.	.	.	.	.	32ee-\	.
.	.	.	.	.	.	32ff\	.
.	.	.	.	.	.	32gg\JJ	.
8FF/J	.	.	.	.	.	8aa-'\J)	.
8AA-/L	.	&([4.Bn/&)	.	[4.bn\	.	2.f/	.
8AA-/	.	.	.	.	.	.	.
8AA-/J	.	.	.	.	.	.	.
8D/L	.	8B/L]	.	8b\L]	.	.	.
8D/	.	16B/L	.	16b\L	.	.	.
.	.	16c/	.	16cc\	.	.	.
8C'/J	.	16d/	.	16dd\	.	.	.
.	.	&(16e-/JJ&)	.	16ee-\JJ	.	.	.
=53	=53	=53	=53	=53	=53	=53	=53
8BBn/L	.	[4.f\	.	[4.ff\	.	(32gg\LLL	.
.	.	.	.	.	.	32ff#\	.
.	.	.	.	.	.	32gg\	.
.	.	.	.	.	.	32aa\	.
8BB/	.	.	.	.	.	32bbn\	.
.	.	.	.	.	.	32aa\	.
.	.	.	.	.	.	32bb\	.
.	.	.	.	.	.	32ccc\JJJ	.
8BB/J	.	.	.	.	.	8ddd'\)	.
8D\L	.	8f\L_	.	8ff\L]	.	[4.Bn/	.
8D\	.	16f\L]	.	16ff\L	.	.	.
.	.	16d\	.	16dd\	.	.	.
8D\J	.	16Bn\	.	16bn\	.	.	.
.	.	16G\JJ	.	16g\JJ	.	.	.
8GG/L	.	16F#/LL	.	16f#/LL	.	8B/L]	.
.	.	16G/	.	16g/	.	.	.
8GG/	.	16A-/	.	16a-/	.	(8B/	.
.	.	16G/	.	16g/	.	.	.
8GG/J	.	16Fn/	.	16fn/	.	8g/J)	.
.	.	&(16D/JJ&)	.	16d/JJ	.	.	.
=54	=54	=54	=54	=54	=54	=54	=54
32C/LLL	pp	4E-/	pp	8c'/L 8e-'/	pp	(4.g/	pp
32BBn/	.	.	.	.	.	.	.
32C/	.	.	.	.	.	.	.
32D/	.	.	.	.	.	.	.
32E-/	.	.	.	8c'/ 8e-'/	.	.	.
32D/	.	.	.	.	.	.	.
32E-/	.	.	.	.	.	.	.
32F/JJ	.	.	.	.	.	.	.
&(8G'/J&)	.	8r	.	8c'/J 8e-'/	.	.	.
4r	.	4r	.	4.c/ 4.e-/	.	4.cc\	.
8r	.	8r	.	.	.	.	.
4r	.	4r	.	4.c/ 4.e-/	.	4.dd\)	.
8r	.	8r	.	.	.	.	.
=55	=55	=55	=55	=55	=55	=55	=55
32AA-/LLL	.	4.E-/	.	4.c/ 4.e-/	.	4ee-\	.
32GG/	.	.	.	.	.	.	.
32AA-/	.	.	.	.	.	.	.
32BB-/	.	.	.	.	.	.	.
32C/	.	.	.	.	.	.	.
32BBn/	.	.	.	.	.	.	.
32C/	.	.	.	.	.	.	.
32D/JJ	.	.	.	.	.	.	.
&(8E-'/J&)	.	.	.	.	.	8r	.
4r	.	4.A-/	.	4.c/ 4.e-/	.	4r	.
8r	.	.	.	.	.	8r	.
4r	.	&(4.B-/&)	.	4.c/ 4.e-/	.	4r	.
8r	.	.	.	.	.	8r	.
=56	=56	=56	=56	=56	=56	=56	=56
32FF#/LLL	.	4c\	.	4.c/ 4.d/	.	(4.dd\	.
32EE/	.	.	.	.	.	.	.
32FF#/	.	.	.	.	.	.	.
32GG/	.	.	.	.	.	.	.
32AA/	.	.	.	.	.	.	.
32GG/	.	.	.	.	.	.	.
32AA/	.	.	.	.	.	.	.
32BB-/JJ	.	.	.	.	.	.	.
&(8C'/J&)	.	8r	.	.	.	.	.
4r	.	4r	.	4.c/ 4.d/	.	4.aa\	.
8r	.	8r	.	.	.	.	.
4r	.	4r	.	4.c/ 4.d/	.	4.ddd\)	.
8r	.	8r	.	.	.	.	.
=57	=57	=57	=57	=57	=57	=57	=57
32GG/LLL	.	4.D/	.	4.B-/ 4.d/	.	4bb-\	.
32FF#/	.	.	.	.	.	.	.
32GG/	.	.	.	.	.	.	.
32AA/	.	.	.	.	.	.	.
32BB-/	.	.	.	.	.	.	.
32AA/	.	.	.	.	.	.	.
32BB-/	.	.	.	.	.	.	.
32C/JJ	.	.	.	.	.	.	.
&(8D'/J&)	.	.	.	.	.	8r	.
4r	.	4.G/	.	4.B-/ 4.d/	.	4r	.
8r	.	.	.	.	.	8r	.
4r	.	&(4.A/&)	.	4.B-/ 4.d/	.	4r	.
8r	.	.	.	.	.	8r	.
=58	=58	=58	=58	=58	=58	=58	=58
32EE-/LLL	.	4.B-/	.	4.g/	.	(4.b-\	.
32DD/	.	.	.	.	.	.	.
32EE-/	.	.	.	.	.	.	.
32FF/	.	.	.	.	.	.	.
32GG/	.	.	.	.	.	.	.
32FF/	.	.	.	.	.	.	.
32GG/	.	.	.	.	.	.	.
32AA-/JJ	.	.	.	.	.	.	.
8BB-'/J	.	.	.	.	.	.	.
4r	.	4.e-\	.	4.g/ 4.b-/	.	4.ee-\	.
8r	.	.	.	.	.	.	.
4r	.	&(4.d\&)	.	4.f/ 4.b-/	.	4.ff\)	.
8r	.	.	.	.	.	.	.
=59	=59	=59	=59	=59	=59	=59	=59
4C#/	.	4c#\ 4e\	.	4g/ 4b-/	.	4gg\	.
8r	f	8r	f	8r	f	8r	f
4r	.	4r	.	4r	.	4r	.
8r	.	8r	.	8r	.	8r	.
4r	.	4r	.	4r	.	4r	.
8r	.	8r	.	8r	.	8r	.
=60	=60	=60	=60	=60	=60	=60	=60
4D\	p	4d\	p	4f/ 4a/	p	4ff\	p
8r	.	8r	.	8r	.	8r	.
4r	.	4r	.	4r	.	4r	.
8r	.	8r	.	8r	.	8r	.
4r	.	4r	.	4r	.	4r	.
8r	.	8r	.	8r	.	8r	.
=61	=61	=61	=61	=61	=61	=61	=61
4GG/	.	4B-/	.	4d/	.	4ee\	.
8r	pp	8r	pp	8r	pp	8r	pp
4r	.	4r	.	4r	.	4r	.
8r	.	8r	.	8r	.	8r	.
4r	.	4r	.	4r	.	4r	.
8r	.	8r	.	8r	.	8r	.
=62	=62	=62	=62	=62	=62	=62	=62
4AA/	ppp	4G/	ppp	4c#/	ppp	4a/	ppp
8r	.	8r	.	8r	.	8r	.
4r	.	4r	.	4r	.	4r	.
8r	.	8r	.	8r	.	8r	.
4r	.	4r	.	4r	.	4r	.
8r	.	8r	.	8r	.	8r	.
=63	=63	=63	=63	=63	=63	=63	=63
8D'\L	pp	8F'/L	pp	16r	pp	4.r	.
.	.	.	.	16A/LL	.	.	.
8D'\	.	8F'/	.	16B-/	.	.	.
.	.	.	.	16A/	.	.	.
8D'\J	.	&(8F'/J&)	.	16B-/	.	.	.
.	.	.	.	16A/JJ	.	.	.
8F\L	.	8A/L	.	16r	.	4.r	.
.	.	.	.	16A/LL	.	.	.
8F\	.	8A/	.	16d/	.	.	.
.	.	.	.	16A/	.	.	.
8F\J	.	8A/J	.	16d/	.	.	.
.	.	.	.	16A/JJ	.	.	.
8E\L	.	8G/L	.	16r	.	4.r	.
.	.	.	.	16A/LL	.	.	.
8E\	.	8G/	.	16c#/	.	.	.
.	.	.	.	16A/	.	.	.
8E\J	.	8G/J	.	16c#/	.	.	.
.	.	.	.	16A/JJ	.	.	.
=64	=64	=64	=64	=64	=64	=64	=64
8D\L	.	8F/L	.	16r	.	[2.a/	.
.	.	.	.	16A/LL	.	.	.
8D\	.	8F/	.	16B-/	.	.	.
.	.	.	.	16A/	.	.	.
8D\J	.	8F/J	.	16B-/	.	.	.
.	.	.	.	16A/JJ	.	.	.
8F\L	.	8A/L	.	16r	.	.	.
.	.	.	.	16A/LL	.	.	.
8F\	.	8A/	.	16d/	.	.	.
.	.	.	.	16A/	.	.	.
8F\J	.	8A/J	.	16d/	.	.	.
.	.	.	.	16A/JJ	.	.	.
8E\L	.	8G/L	.	16r	.	4.a/_	pp
.	.	.	.	16A/LL	.	.	.
8E\	.	8G/	.	16c#/	.	.	.
.	.	.	.	16A/	.	.	.
8E\J	.	8G/J	.	16c#/	.	.	.
.	.	.	.	16A/JJ	.	.	.
=65	=65	=65	=65	=65	=65	=65	=65
8D\L	.	8F/L	.	16r	.	(4.a/]	.
.	.	.	.	16A/LL	.	.	.
8D\	.	8F/	.	16B-/	.	.	.
.	.	.	.	16A/	.	.	.
8D\J	.	8F/J	.	16B-/	.	.	.
.	.	.	.	16A/JJ	.	.	.
8F\L	.	8A/L	.	16r	.	4.dd\	.
.	.	.	.	16A/LL	.	.	.
8F\	.	8A/	.	16d/	.	.	.
.	.	.	.	16A/	.	.	.
8F\J	.	8A/J	.	16d/	.	.	.
.	.	.	.	16A/JJ	.	.	.
8A\L	.	8c#\L	.	16r	.	4.ee\)	.
.	.	.	.	16A/LL	.	.	.
8A\	.	8c#\	.	16e/	.	.	.
.	.	.	.	16A/	.	.	.
8A\J	.	8c#\J	.	16e/	.	.	.
.	.	.	.	16A/JJ	.	.	.
=66	=66	=66	=66	=66	=66	=66	=66
8DD/L	p	16r	p	16r	p	[4.ff\	p
.	.	16F/LL	.	16f/LL	.	.	.
8D/	.	16A/	.	16a/	.	.	.
.	.	16F/	.	16f/	.	.	.
8D/J	.	16A/	.	16a/	.	.	.
.	.	&(16F/JJ&)	.	16f/JJ	.	.	.
8DD/L	.	16r	.	16r	.	(4ff\]	.
.	.	16F/LL	.	16f/LL	.	.	.
8D/	.	16A/	.	16a/	.	.	.
.	.	16F/	.	16f/	.	.	.
8D/J	.	16A/	.	16a/	.	16ee\LL	.
.	.	&(16F/JJ&)	.	16f/JJ	.	16dd\JJ)	.
8DD/L	.	16r	.	16r	.	(16dd\LL	.
.	.	16F/LL	.	16f/LL	.	32ee\L	.
.	.	.	.	.	.	32dd\J	.
8D/	.	16B-/	.	16b-/	.	16cc#\	.
.	.	16F/	.	16f/	.	16dd\	.
8D/J	.	16B-/	.	16b-/	.	16ff\	.
.	.	&(16F/JJ&)	.	16f/JJ	.	16ee\JJ)	.
=67	=67	=67	=67	=67	=67	=67	=67
8EE/L	f	32G/LLL	f	32g/LLL	f	(4.dd\	f
.	.	32F#/	.	32f#/	.	.	.
.	.	32G/	.	32g/	.	.	.
.	.	32F#/	.	32f#/	.	.	.
8E/	.	32G/	.	32g/	.	.	.
.	.	32F#/	.	32f#/	.	.	.
.	.	32G/	.	32g/	.	.	.
.	.	32A/JJ	.	32a/JJ	.	.	.
8E/J	.	&(8B-'/J&)	.	8b-'/J	.	.	.
8EE/L	.	16G/LL	.	32g/LLL	.	[4.cc#\)	.
.	.	.	.	32f#/	.	.	.
.	.	32F#/L	.	32g/	.	.	.
.	.	32G/	.	32f#/	.	.	.
8E/	.	32F#/	.	32g/	.	.	.
.	.	32G/	.	32f#/	.	.	.
.	.	32F#/	.	32g/	.	.	.
.	.	32G/	.	32a/JJ	.	.	.
8E/J	.	32A/JJ	.	8b-'/J	.	.	.
.	.	&(8B-'/J&)	.	.	.	.	.
8EE/L	.	.	.	32g/LLL	.	8cc#\L]	.
.	.	32G/LLL	.	32f#/	.	.	.
.	.	32F#/	.	32g/	.	.	.
.	.	32G/	.	32a/	.	.	.
8E/	.	32A/	.	32b-/	.	(16cc#\L	.
.	.	32B-/	.	32a/	.	.	.
.	.	32A/	.	32b-/	.	16dd\	.
.	.	32B-/	.	32a/	.	.	.
8E/J	.	32A/	.	32g/	.	16ee\	.
.	.	32G/	.	32fn/	.	.	.
.	.	32Fn/	.	32e/	.	16ff\JJ)	.
.	.	&(32D/JJJ&)	.	32d/JJJ	.	.	.
=68	=68	=68	=68	=68	=68	=68	=68
8EE/L	p	16C#'/LL	p	16c#'/	p	[4.gg\	p
.	.	&(16E/&)	.	16c#/LL	.	.	.
8E/	.	16G/	.	16b-/	.	.	.
.	.	16E/	.	16c#/	.	.	.
8E/J	.	16G/	.	16b-/	.	.	.
.	.	&(16E/JJ&)	.	16c#/JJ	.	.	.
8EE/L	.	16r	.	16r	.	8gg\L]	.
.	.	16E/LL	.	16c#/LL	.	.	.
.	.	.	.	.	.	aaq/	.
8E/	.	16G/	.	16b-/	.	(16gg/L	.
.	.	16E/	.	16c#/	.	16ff#/	.
8E/J	.	16G/	.	16b-/	.	16gg/	.
.	.	&(16E/JJ&)	.	16c#/JJ	.	16aa/JJ)	.
8EE/L	.	16r	.	16r	.	(4bb-\	.
.	.	16E/LL	.	16c#/LL	.	.	.
8E/	.	16G/	.	16b-/	.	.	.
.	.	16E/	.	16c#/	.	.	.
8E/J	.	16G/	.	16b-/	.	8cc#\)	.
.	.	&(16E/JJ&)	.	16c#/JJ	.	.	.
=69	=69	=69	=69	=69	=69	=69	=69
8FF/L	f	32A/LLL	f	32a/LLL	f	(4.ee\	f
.	.	32G/	.	32g#/	.	.	.
.	.	32A/	.	32a/	.	.	.
.	.	32G/	.	32g#/	.	.	.
8F/	.	32A/	.	32a/	.	.	.
.	.	32G/	.	32gn/	.	.	.
.	.	32F/	.	32f/	.	.	.
.	.	32E/JJ	.	32e/JJ	.	.	.
8F/J	.	&(8D'/J&)	.	8d'/J	.	.	.
8FF/L	.	32A/LLL	.	32a/LLL	.	[4.dd\)	.
.	.	32G#/	.	32g#/	.	.	.
.	.	32A/	.	32a/	.	.	.
.	.	32G#/	.	32g#/	.	.	.
8F/	.	32A/	.	32a/	.	.	.
.	.	32Gn/	.	32gn/	.	.	.
.	.	32F/	.	32f/	.	.	.
.	.	&(32E/JJ&)	.	32e/JJ	.	.	.
8F/J	.	8D'/J	.	8d'/J	.	.	.
8FF/L	.	32A/LLL	.	32a/LLL	.	(8dd\L]	.
.	.	32G#/	.	32g#/	.	.	.
.	.	32A/	.	32a/	.	.	.
.	.	32G#/	.	32g#/	.	.	.
8F/	.	32A/	.	32a/	.	8ee\	.
.	.	32Gn/	.	32gn/	.	.	.
.	.	32F-/	.	32f/	.	.	.
.	.	32E/JJ	.	32e/JJ	.	.	.
8F/J	.	&(8D'/J&)	.	8d'/J	.	8ff\J)	.
=70	=70	=70	=70	=70	=70	=70	=70
8GG/L	.	16r	.	16r	.	(4.ff\	.
.	.	16B-\LL	p	16d/LL	p	.	.
8G/	p	16d\	.	16e/	.	.	.
.	.	16B-\	.	16d/	.	.	.
8G/J	.	16d\	.	16e/	.	.	.
.	.	&(16B-\JJ&)	.	16d/JJ	.	.	.
8GG/L	.	16r	.	16r	.	[4.ee\)	p
.	.	16B-\LL	.	16d/LL	.	.	.
8G/	.	16d\	.	16e/	.	.	.
.	.	16B-\	.	16d/	.	.	.
8G/J	.	16d\	.	16e/	.	.	.
.	.	&(16B-\JJ&)	.	16d/JJ	.	.	.
8GG#/L	.	16r	.	16r	.	(8ee\L]	.
.	.	16B-\LL	.	16d/LL	.	.	.
8G#/	.	16d\	.	16f/	.	8ff\	.
.	.	16B-\	.	16d/	.	.	.
8G#/J	.	16d\	.	16f/	.	8dd\J)	.
.	.	&(16B-\JJ&)	.	16d/JJ	.	.	.
=71	=71	=71	=71	=71	=71	=71	=71
4AA/	.	8E/L	.	4c#/	.	4cc#\	.
.	.	8A'/	.	.	.	.	.
8r	.	&(8A'/J&)	.	8r	.	8r	.
8r	.	[4.A/	.	8r	.	8r	.
8C#/L	.	.	.	8a/L	.	(8aa\L	.
8E/J	.	.	.	8g/J	.	8gg\J	.
8D/L	.	8A/L]	.	8f/L	.	8ff\L	.
8GG/	.	8B-/	.	8e/	.	8ee\	.
8GG#/J	.	8Bn/J	.	8d/J	.	8dd\J)	.
=72	=72	=72	=72	=72	=72	=72	=72
8AA/L	.	[4.E/	.	4c#/	.	4cc#\	.
8BB-/	.	.	.	.	.	.	.
8GG#/J	.	.	.	8r	.	8r	.
8AA/L	.	8E/L]	.	4a/	.	(4aa\	.
8C#/	.	8A'/	.	.	.	.	.
8E/J	.	&(8A'/J&)	.	8g/	.	8gg\	.
8D/L	.	8A/L	.	8f/L	.	8ff\L	.
8GGn/	.	8B-/	.	8e/	.	8ee\	.
8GG#/J	.	&(8Bn/J&)	.	8d/J	.	8dd\J)	.
=73	=73	=73	=73	=73	=73	=73	=73
4AA/	.	4E/	.	4c#/	.	4cc#\	.
8r	.	8r	.	8r	.	8r	.
4r	.	4r	.	4r	.	4r	.
8r	.	8r	.	8r	.	8r	.
4.A\	.	4.d\	.	4.f/	.	(4.b-\	.
=74	=74	=74	=74	=74	=74	=74	=74
4A\	pp	&(4c#\&)	pp	4e/	pp	4a/)	pp
8r	.	8r	.	8r	.	8r	.
4r	.	4r	.	4r	.	4r	.
8r	.	8r	.	8r	.	8r	.
4.BB-/	.	4.B-/	.	4.B-/	.	(4.B-/	.
=75	=75	=75	=75	=75	=75	=75	=75
8AA/L	p	8A\L	p	8A/L	p	(8A/L)	p
8C#/	.	8c#\	.	8c#/	.	8c#/	.
8E/J	.	8e\J	.	8e/J	.	8e/J	.
8A\L	.	[4.a\	.	8a/L	.	8a/L	.
8G\	.	.	.	8c#/	.	8A/	.
8F#\J	.	.	.	8d/J	.	8Bn/J	.
8E\L	.	8a\L]	.	8e/L	.	8c#/L	.
8D\	.	8a'\	.	8f#/	.	8d/	.
8C#\J	.	8a'\J	.	8g/J	.	8e/J)	.
=76	=76	=76	=76	=76	=76	=76	=76
4D\	p	4.a\	p	8f#/L	p	4d/	p
.	.	.	.	8A/	.	.	.
8r	.	.	.	8A'/J	.	8r	.
4r	.	4.g\	.	8e/L	.	4r	.
.	.	.	.	8A/	.	.	.
8r	.	.	.	8A'/J	.	8r	.
4r	.	8f#\	.	8d/L	.	4r	.
.	.	gq/	.	.	.	.	.
.	.	16f#'\LL	.	8A/	.	.	.
.	.	16e\	.	.	.	.	.
8r	.	16f#\	.	8A'/J	.	8r	.
.	.	16g\JJ	.	.	.	.	.
=77	=77	=77	=77	=77	=77	=77	=77
4.G\	.	4e\	.	8c#/L	.	(4.bb-\	.
.	.	.	.	8A/	.	.	.
.	.	8r	.	8A'/J	.	.	.
4.F#\	.	4r	.	8d/L	.	4.aa\	.
.	.	.	.	8A/	.	.	.
.	.	8r	.	8A'/J	.	.	.
4.C#/	.	4r	.	8e/L	.	8gg\L	.
.	.	.	.	.	.	aaq/	.
.	.	.	.	8A/	.	16gg/L	.
.	.	.	.	.	.	16ff#/	.
.	.	8r	.	8A'/J	.	16gg/	.
.	.	.	.	.	.	16aa/JJ)	.
=78	=78	=78	=78	=78	=78	=78	=78
4D\	.	8a\L	.	8f#/L	.	4ff#\	.
.	.	16dd\L	.	8A/	.	.	.
.	.	16cc#\	.	.	.	.	.
8r	.	16bn\	.	8A'/J	.	8r	.
.	.	16a\JJ	.	.	.	.	.
4r	.	16a\LL	.	8c#/L	.	4r	.
.	.	16g\	.	.	.	.	.
.	.	16ee\	.	8A/	.	.	.
.	.	16dd#\	.	.	.	.	.
8r	.	16a\	.	8A'/J	.	8r	.
.	.	16g\JJ	.	.	.	.	.
4r	.	16g\LL	.	8d/L	.	4r	.
.	.	16f#\	.	.	.	.	.
.	.	16ddn\	.	8A/	.	.	.
.	.	16a\	.	.	.	.	.
8r	.	16g\	.	8A'/J	.	8r	.
.	.	16f#\JJ	.	.	.	.	.
=79	=79	=79	=79	=79	=79	=79	=79
4.G\	.	4.e\	.	8c#/L	.	(8bbn\L	.
.	.	.	.	8A/	.	16eee\L	.
.	.	.	.	.	.	16ddd\	.
.	.	.	.	8A/J	.	16ccc#\	.
.	.	.	.	.	.	16bb\JJ)	.
4.F#\	.	4.f#\	.	8d/L	.	(16bb\LL	.
.	.	.	.	.	.	16aa\	.
.	.	.	.	8A/	.	16ddd\	.
.	.	.	.	.	.	16ccc#\	.
.	.	.	.	8A'/J	.	16bb\	.
.	.	.	.	.	.	16aa\JJ)	.
4.C#/	.	4.g\	.	8e/L	.	(16aa\LL	.
.	.	.	.	.	.	16gg\	.
.	.	.	.	8A/	.	16eee\	.
.	.	.	.	.	.	16ccc#\	.
.	.	.	.	8A'/J	.	16aa\	.
.	.	.	.	.	.	16gg\JJ)	.
=80	=80	=80	=80	=80	=80	=80	=80
4D\	.	4f#\	.	4A/	.	(16ff#\LL	.
.	.	.	.	.	.	16ee#\	.
.	.	.	.	.	.	16ff#\	.
.	.	.	.	.	.	16een\	.
8r	.	8r	.	8r	.	16dd\	.
.	.	.	.	.	.	16cc#\JJ	.
4r	.	4r	.	4r	.	16b-/LL	.
.	.	.	.	.	.	16a#/	.
.	.	.	.	.	.	16b-/	.
.	.	.	.	.	.	16an/	.
8r	.	8r	.	8r	.	16g/	.
.	.	.	.	.	.	16f#/JJ	.
4r	.	4r	.	4r	.	16e/LL	.
.	.	.	.	.	.	16d#/	.
.	.	.	.	.	.	16e/	.
.	.	.	.	.	.	16dn/	.
8r	.	8r	.	8r	.	16c#/	.
.	.	.	.	.	.	16Bn/JJ)	.
=81	=81	=81	=81	=81	=81	=81	=81
16F\LL	.	[4.F#/	.	4r	.	(4A#/	.
16E#\	.	.	.	.	.	.	.
16F\	.	.	.	.	.	.	.
16En\	.	.	.	.	.	.	.
16D\	.	.	.	8r	.	16Bn/LL	.
16C#\JJ	.	.	.	.	.	16c#/JJ)	.
16BBn/LL	.	4F#/]	.	4Bn/	.	(4d/	.
16AA#/	.	.	.	.	.	.	.
16BB/	.	.	.	.	.	.	.
16AAn/	.	.	.	.	.	.	.
16GG/	.	[8Bn/	.	16c#/LL	.	16e/LL	.
16FF#/JJ	.	.	.	16d/JJ	.	16f#/JJ)	.
16EE/LL	.	16B/LL]	.	8.e/L	.	(8g'/L	.
16BB/	.	16A/	.	.	.	.	.
16E/	.	16G/	.	.	.	8g'/	.
16D/	.	16F#/	.	16B/L	.	.	.
16C#/	.	16E/	.	16c#/	.	8g'/J)	.
16BB/JJ	.	16D/JJ	.	16d/JJ	.	.	.
=82	=82	=82	=82	=82	=82	=82	=82
2.AA/	.	16C#/LL	.	16e/LL	.	(2.g/	.
.	.	16D/	.	16d/	.	.	.
.	.	16E/	.	16c#/	.	.	.
.	.	16D/	.	16d/	.	.	.
.	.	16C#/	.	16e/	.	.	.
.	.	16D/JJ	.	16d/JJ	.	.	.
.	.	16E/LL	.	16c#/LL	.	.	.
.	.	16D/	.	16d/	.	.	.
.	.	16C#/	.	16e/	.	.	.
.	.	16D/	.	16d/	.	.	.
.	.	16E/	.	16c#/	.	.	.
.	.	16C#/JJ	.	16e/JJ	.	.	.
4.BB-/	.	16D/LL	.	4.d/	.	4.f/)	.
.	.	16C#/	.	.	.	.	.
.	.	16D/	.	.	.	.	.
.	.	16E/	.	.	.	.	.
.	.	16F/	.	.	.	.	.
.	.	16D/JJ	.	.	.	.	.
=83	=83	=83	=83	=83	=83	=83	=83
4.GG/	.	4.G/	.	16B-/LL	.	(4.e-/	.
.	.	.	.	16A/	.	.	.
.	.	.	.	16B-/	.	.	.
.	.	.	.	16A/	.	.	.
.	.	.	.	16B-/	.	.	.
.	.	.	.	16A/JJ	.	.	.
4.BB-/	.	16D/LL	.	4.G#/	.	[4.d/)	.
.	.	16C#/	.	.	.	.	.
.	.	16D/	.	.	.	.	.
.	.	16C#/	.	.	.	.	.
.	.	16D/	.	.	.	.	.
.	.	16F/JJ	.	.	.	.	.
4.AA/	.	4A/	.	4Gn/	.	(8d/L]	.
.	.	.	.	.	.	8en/	.
.	.	8a\	.	8g/	.	8c#/J)	.
=84	=84	=84	=84	=84	=84	=84	=84
4D\	p	16a\LL	p	4f#/	p	4d/	p
.	.	16g#\	.	.	.	.	.
.	.	16a\	.	.	.	.	.
.	.	16gn\	.	.	.	.	.
8r	.	16f#\	.	8r	.	8r	.
.	.	16e\JJ	.	.	.	.	.
4r	.	16d/LL	.	16ff\LL	.	4r	.
.	.	16c#/	.	16ee#\	.	.	.
.	.	16d/	.	16ff\	.	.	.
.	.	16cn/	.	16een\	.	.	.
8r	.	16Bn/	.	16dd\	.	8r	.
.	.	16A/JJ	.	16cc#\JJ	.	.	.
16G\LL	.	4G/	.	16b-/LL	.	(16bbn\LL	.
16F#\	.	.	.	16a#/	.	16aa#\	.
16G\	.	.	.	16b-/	.	16bb\	.
16F#\	.	.	.	16an/	.	16aan\	.
16E\	.	16A/LL	.	16g/	.	16gg\	.
16D\JJ	.	16B/JJ	.	16f#/JJ	.	16ff#\JJ)	.
=85	=85	=85	=85	=85	=85	=85	=85
16C/LL	.	[2.c\	.	4.e/	.	(4.ee\	.
16BB-/	.	.	.	.	.	.	.
16C/	.	.	.	.	.	.	.
16BB-/	.	.	.	.	.	.	.
16AA/	.	.	.	.	.	.	.
16GG/JJ	.	.	.	.	.	.	.
16FF#/LL	.	.	.	[4.a/	.	4.ee-\)	.
16GG/	.	.	.	.	.	.	.
16FF#/	.	.	.	.	.	.	.
16GG/	.	.	.	.	.	.	.
16AA/	.	.	.	.	.	.	.
16GG/JJ	.	.	.	.	.	.	.
16FF#/LL	.	8c\L]	.	8.a/L]	.	([4.dd\	.
16EE/	.	.	.	.	.	.	.
16FF#/	.	8c\	.	.	.	.	.
16DD/	.	.	.	16f#/L	.	.	.
16EE/	.	8c\J	.	16g/	.	.	.
16FF#/JJ	.	.	.	16a/JJ	.	.	.
=86	=86	=86	=86	=86	=86	=86	=86
16GG\LL	.	8.B-\L	.	4.b-\	.	8dd\L]	.
16B-\	.	.	.	.	.	.	.
16G\	.	.	.	.	.	&(8gg\&)	.
16F\	.	16d\L	.	.	.	.	.
16E\	.	16e\	.	.	.	8gg'\J)	.
16D\JJ	.	16f\JJ	.	.	.	.	.
16C#/LL	.	4.e\	.	[4.a/	.	(4.gg\	.
16BBn/	.	.	.	.	.	.	.
16C#/	.	.	.	.	.	.	.
16AA/	.	.	.	.	.	.	.
16BB/	.	.	.	.	.	.	.
16C#/JJ	.	.	.	.	.	.	.
16D/LL	.	4.d\	.	8a/L]	.	4.ff\)	.
16C#/	.	.	.	.	.	.	.
16D/	.	.	.	8a'/	.	.	.
16AA/	.	.	.	.	.	.	.
16FF/	.	.	.	8a'/J	.	.	.
16DD/JJ	.	.	.	.	.	.	.
=87	=87	=87	=87	=87	=87	=87	=87
4.GG/	.	4.G/	.	16b-/LL	.	(4.ee-\	.
.	.	.	.	16a/	.	.	.
.	.	.	.	16b-/	.	.	.
.	.	.	.	16a/	.	.	.
.	.	.	.	16b-/	.	.	.
.	.	.	.	16a/JJ	.	.	.
4.BB-/	.	16D/LL	.	4.g#/	.	[4.dd'\)	.
.	.	16C#/	.	.	.	.	.
.	.	16D/	.	.	.	.	.
.	.	16C#/	.	.	.	.	.
.	.	16D/	.	.	.	.	.
.	.	16F/JJ	.	.	.	.	.
4.AA/	.	4A/	.	4.gn/	.	(8dd\L]	.
.	.	.	.	.	.	8een\	.
.	.	8A/	.	.	.	8cc#\J)	.
=88	=88	=88	=88	=88	=88	=88	=88
8DD/L	p	4.a\	p	8f#/L	p	8dd/L	p
8D/	.	.	.	8A/	.	8f#/	.
8D/J	.	.	.	8A/J	.	8f#/J	.
4D\	.	16g#\LL	.	4A/	.	4f#/	.
.	.	16a\	.	.	.	.	.
.	.	16bn\	.	.	.	.	.
.	.	16a\	.	.	.	.	.
8r	.	16e#\	.	8r	.	8r	.
.	.	16f#\JJ	.	.	.	.	.
4r	.	16gn\LL	.	4r	.	4r	.
.	.	16f#\	.	.	.	.	.
.	.	16c#\	.	.	.	.	.
.	.	16d\	.	.	.	.	.
8r	.	16en\	.	8r	.	8r	.
.	.	16d\JJ	.	.	.	.	.
=89	=89	=89	=89	=89	=89	=89	=89
8DD/L	.	8c#\L	.	4.ee\	.	8A/L 8g/	.
8D/	.	8c#\	.	.	.	8A/ 8g/	.
8D/J	.	8c#\J	.	.	.	8A/J 8g/	.
4D\	.	4c#\	.	16dd#\LL	.	4A/ 4g/	.
.	.	.	.	16ee\	.	.	.
.	.	.	.	16ff#\	.	.	.
.	.	.	.	16ee\	.	.	.
8r	.	8r	.	16b#\	.	8r	.
.	.	.	.	16cc#\JJ	.	.	.
4r	.	4r	.	16ddn\LL	.	4r	.
.	.	.	.	16cc#\	.	.	.
.	.	.	.	16g#\	.	.	.
.	.	.	.	16a\	.	.	.
8r	.	8r	.	16bn\	.	8r	.
.	.	.	.	16a\JJ	.	.	.
=90	=90	=90	=90	=90	=90	=90	=90
8D\L	.	8f#\L	.	8a'/L	.	(4.aa\	.
8d\	.	8f#\	.	8a'/	.	.	.
8d\J	.	8f#\J	.	8a'/J	.	.	.
4d\	.	4f#\	.	4a/	.	16gg#\LL	.
.	.	.	.	.	.	&(16aa\&)	.
.	.	.	.	.	.	16bbn\	.
.	.	.	.	.	.	&(16aa\&)	.
8r	.	8r	.	8r	.	16ee#\	.
.	.	.	.	.	.	&(16ff#\JJ&))	.
4r	.	4r	.	4r	.	(16ggn\LL	.
.	.	.	.	.	.	16ff#\)	.
.	.	.	.	.	.	(16cc#\	.
.	.	.	.	.	.	16dd\)	.
8r	.	8r	.	8r	.	(16een\	.
.	.	.	.	.	.	&(16dd\JJ&))	.
=91	=91	=91	=91	=91	=91	=91	=91
4.r	.	4.r	.	4.r	.	(16a#/LL	.
.	.	.	.	.	.	16bn/)	.
.	.	.	.	.	.	(16cc#/	.
.	.	.	.	.	.	16b/)	.
.	.	.	.	.	.	(16f#/	.
.	.	.	.	.	.	&(16g/JJ&))	.
4.r	.	4.r	.	4.r	.	(16an/LL	.
.	.	.	.	.	.	16g/)	.
.	.	.	.	.	.	(16d#/	.
.	.	.	.	.	.	16e/)	.
.	.	.	.	.	.	(16f#/	.
.	.	.	.	.	.	&(16e/JJ&))	.
4.r	.	4.r	.	4.r	.	(16d#/LL	.
.	.	.	.	.	.	16e/)	.
.	.	.	.	.	.	(16f#/	.
.	.	.	.	.	.	16e/)	.
.	.	.	.	.	.	(16d#/	.
.	.	.	.	.	.	&(16e/JJ&))	.
=92	=92	=92	=92	=92	=92	=92	=92
*	*	*	*	*	*	*^	*
[2.AA/	.	4e\	.	4r	.	(4g/	[4.A\	.
.	.	8d\	pp	8r	pp	8f#/	.	.
.	.	4c#\	.	4e/	.	[4.e/	4.A\_	.
.	.	8Bn/	.	8d/	pp	.	.	.
4AA/]	pp	4A/	.	4c#/	.	8e/]	4.A\]	.
.	.	.	.	.	.	8f#/L	.	.
8GG/	.	8E/	.	8c#'/	.	8g/J)	.	.
*	*	*	*	*	*	*v	*v	*
=93	=93	=93	=93	=93	=93	=93	=93
4FF#/	.	4D/	.	4A/	.	(4a/	.
8EE/	.	8G/	.	16Bn/LL	.	16bn\LL	.
.	.	.	.	16c#/JJ	.	16cc#\JJ)	.
8DD/L	.	[4.F#/	.	[4.d/	.	([4.dd\	.
8D/	.	.	.	.	.	.	.
8C#/J	.	.	.	.	.	.	.
4BBn/	.	8F#/L]	.	8d/L]	.	8dd/L]	.
.	.	8Bn/	.	8d/	.	&(8f#/&))	.
8AA#/	.	8c#/J	.	8e/J	.	8f#'/J	.
=94	=94	=94	=94	=94	=94	=94	=94
4BBn/	.	4Bn/	.	4d/	.	(4f#/	.
.	.	.	.	.	.	gq/LL	.
.	.	.	.	.	.	f#q/	.
.	.	.	.	.	.	eq/	.
.	.	.	.	.	.	f#q/JJ	.
8GG/	.	8B'/	.	8e/	.	16a/LL	.
.	.	.	.	.	.	16g/JJ)	.
[4.AAn/	.	4.A/	.	4.d/	.	[4.f#/	.
4.AA/]	.	4.G/	.	4.c#/	.	8.f#/L]	.
.	.	.	.	.	.	(16e/L	.
.	.	.	.	.	.	16.bn/	.
.	.	.	.	.	.	32a/JJk)	.
=95	=95	=95	=95	=95	=95	=95	=95
4D/	pp	16D/LL	pp	16d/LL	pp	4d/	pp
.	.	16D/	.	16A/JJ 16d/	.	.	.
.	.	16D/	.	16A/LL 16d/	.	.	.
.	.	16D/	.	16A/JJ 16d/	.	.	.
8r	.	16D/	.	16A/LL 16d/	.	8r	.
.	.	16D/JJ	.	16A/JJ 16d/	.	.	.
4r	.	16F/LL	.	4.A/ 4.d/	.	4r	.
.	.	16F/	.	.	.	.	.
.	.	16F/	.	.	.	.	.
.	.	16F/	.	.	.	.	.
8r	.	16F/	.	.	.	8r	.
.	.	16F/JJ	.	.	.	.	.
4r	.	4.E/ 4.G/	.	4.c#/	.	4r	.
8r	.	.	.	.	.	8r	.
*clefC4	*clefC4	*	*	*	*	*	*
=96	=96	=96	=96	=96	=96	=96	=96
[2.A\	.	4.D/	.	4.f/	.	[2.a/	.
.	.	4.F/	p	4.A/ 4.d/	p	.	.
4.A\_	p	4.E/ 4.G/	.	4.c#/	.	4a/_	p
.	.	.	.	.	.	16a\LL]	.
.	.	.	.	.	.	112a\LLL	.
.	.	.	.	.	.	112b-\	.
.	.	.	.	.	.	112cc\	.
.	.	.	.	.	.	112dd\	.
.	.	.	.	.	.	112ee\	.
.	.	.	.	.	.	112ff\	.
.	.	.	.	.	.	112gg\JJJJJ	.
=97	=97	=97	=97	=97	=97	=97	=97
4.A\]	.	4.D/	.	4.f/	.	[2.aa\	.
4.d\	.	4.F/	.	4.A/ 4.d/	.	.	.
4.e\	.	4.A/	.	4.c#/	.	4aa\_	.
.	.	.	.	.	.	16aa\LL]	.
.	.	.	.	.	.	112aa\LLL	.
.	.	.	.	.	.	112bbn\	.
.	.	.	.	.	.	112ccc#\	.
.	.	.	.	.	.	112ddd\	.
.	.	.	.	.	.	112eee\	.
.	.	.	.	.	.	112fff\	.
.	.	.	.	.	.	112ggg\JJJJJ	.
=98	=98	=98	=98	=98	=98	=98	=98
4.f\	.	4.D/	.	4.A/ 4.f/	.	4aaa\	.
.	.	.	.	.	.	8r	ff
4f\	ff	4.D'/	ff	4.A/ 4.f/	ff	4d/	.
16e\LL	.	.	.	.	.	8r	.
16d\JJ	.	.	.	.	.	.	.
16d\LL	.	4.D/	.	4.B-/ 4.f/	.	4r	.
32e\L	.	.	.	.	.	.	.
32d\J	.	.	.	.	.	.	.
16c#\	.	.	.	.	.	.	.
16d\	.	.	.	.	.	.	.
16f\	.	.	.	.	.	8r	.
16e\JJ	.	.	.	.	.	.	.
=99	=99	=99	=99	=99	=99	=99	=99
4.d\	f	4.E/ 4.G/	f	16B-/	f	(32gg\LLL	f
.	.	.	.	.	.	32ff#\	.
.	.	.	.	32g/LLL	.	32gg\	.
.	.	.	.	32f#/	.	32ff#\	.
.	.	.	.	32g/	.	32gg\	.
.	.	.	.	32f#/	.	32ff#\	.
.	.	.	.	32g/	.	32gg\	.
.	.	.	.	32a/JJ	.	32aa\JJ	.
.	.	.	.	8b-'/J	.	8bb-'\J)	.
[4.c#\	.	4.E/ 4.G/	.	32g/LLL	.	(32gg\LLL	.
.	.	.	.	32f#/	.	32ff#\	.
.	.	.	.	32g/	.	32gg\	.
.	.	.	.	32f#/	.	32ff#\	.
.	.	.	.	32g/	.	32gg\	.
.	.	.	.	32f#/	.	32ff#\	.
.	.	.	.	32g/	.	32gg\	.
.	.	.	.	32a/JJ	.	32aa\JJ	.
.	.	.	.	8b-'/J	.	8bb-'\J)	.
8c#\L]	.	4.E/ 4.G/	.	32g/LLL	.	(32gg\LLL	.
.	.	.	.	32f#/	.	32ff#\	.
.	.	.	.	32g/	.	32gg\	.
.	.	.	.	32a/	.	32aa\	.
16c#\L	.	.	.	32b-/	.	32bb-\	.
.	.	.	.	32a/	.	32aa\	.
16d\	.	.	.	32b-/	.	32bb-\	.
.	.	.	.	32a/	.	32aa\	.
16e\	.	.	.	32g/	.	32gg\	.
.	.	.	.	32fn/	.	32ffn\	.
16f\JJ	.	.	.	32e/	.	32ee\	.
.	.	.	.	32d'/JJJ	.	32dd\JJJ)	.
=100	=100	=100	=100	=100	=100	=100	=100
4.g\	p	4.E/ 4.G/	p	8c#'/L	p	4cc#\	p
.	.	.	.	8gg'/	.	.	.
.	.	.	.	8ee'/J	.	8r	.
8g\	.	4.E/ 4.G/	.	8cc#'/L	.	4r	.
aq/	.	.	.	.	.	.	.
16g\LL	.	.	.	8g'/	.	.	.
16f#\	.	.	.	.	.	.	.
16g\	.	.	.	8e'/J	.	8r	.
16a\JJ	.	.	.	.	.	.	.
4b-\	.	4.E/ 4.G/	.	8c#'/L	.	4r	.
.	.	.	.	8G'/	.	.	.
8c#\	.	.	.	8b-'/J	.	8r	.
=101	=101	=101	=101	=101	=101	=101	=101
4.e\	f	4.F/ 4.A/	f	32a/LLL	f	(32aa\LLL	f
.	.	.	.	32g#/	.	32gg#\	.
.	.	.	.	32a/	.	32aa\	.
.	.	.	.	32g#/JJJ	.	32gg#\	.
.	.	.	.	32a/LLL	.	32aa\	.
.	.	.	.	32gn/	.	32ggn\	.
.	.	.	.	32f/	.	32ff\	.
.	.	.	.	32e/JJJ	.	32ee\JJ	.
.	.	.	.	8d'/	.	8dd'\J)	.
[4.d\	.	4.F/ 4.A/	.	32a/LLL	.	(32aa\LLL	.
.	.	.	.	32g#/	.	32gg#\	.
.	.	.	.	32a/	.	32aa\	.
.	.	.	.	32g#/JJJ	.	32gg#\	.
.	.	.	.	32a/LLL	.	32aa\	.
.	.	.	.	32gn/	.	32ggn\	.
.	.	.	.	32f/	.	32ff\	.
.	.	.	.	32e/JJJ	.	32ee\JJ	.
.	.	.	.	8d'/	.	8dd'\J)	.
8d\]	.	4.F/ 4.A/	.	32a/LLL	.	(32aa\LLL	.
.	.	.	.	32g#/	.	32gg#\	.
.	.	.	.	32a/	.	32aa\	.
.	.	.	.	32g#/JJJ	.	32gg#\	.
*clefF4	*clefF4	*	*	*	*	*	*
8FF'/L	.	.	.	32a/LLL	.	32aa\	.
.	.	.	.	32gn/	.	32ggn\	.
.	.	.	.	32f/	.	32ff\	.
.	.	.	.	32e/JJJ	.	32ee\	.
8FF'/J	.	.	.	32d/LLL	.	32dd\	.
.	.	.	.	32e/	.	32ee\	.
.	.	.	.	32f/	.	32ff\	.
.	.	.	.	32d/JJJ	.	32dd\JJJ)	.
=102	=102	=102	=102	=102	=102	=102	=102
4GG/	f	4B-/	f	4G/ 4e-/	f	(32ee-\LLL	f
.	.	.	.	.	.	32dd\	.
.	.	.	.	.	.	32ee-\	.
.	.	.	.	.	.	32ff\	.
.	.	.	.	.	.	32gg\	.
.	.	.	.	.	.	32ff#\	.
.	.	.	.	.	.	32gg\	.
.	.	.	.	.	.	32aa\JJ	.
8r	.	8r	.	8r	.	8bb-'\J)	.
4r	.	4r	.	4r	.	4r	.
8r	.	8r	.	8r	.	8r	.
4r	.	4r	.	4r	.	4r	.
8r	.	8r	.	8r	.	8r	.
=103	=103	=103	=103	=103	=103	=103	=103
4AA/	f	4c\ 4e-\	f	4A/ 4f#/	f	(32ff#'\LLL	f
.	.	.	.	.	.	32ee\	.
.	.	.	.	.	.	32ff#\	.
.	.	.	.	.	.	32gg\	.
.	.	.	.	.	.	32aa\	.
.	.	.	.	.	.	32gg\	.
.	.	.	.	.	.	32aa\	.
.	.	.	.	.	.	32bb-\JJ	.
8r	.	8r	.	8r	.	8ccc'\J)	.
4r	.	4r	.	4r	.	4r	.
8r	.	8r	.	8r	.	8r	.
4r	.	4r	.	4r	.	4r	.
8r	.	8r	.	8r	.	8r	.
=104	=104	=104	=104	=104	=104	=104	=104
4BB-/	f	4B-\ 4d\	f	4B-/ 4g/	f	(32gg\LLL	f
.	.	.	.	.	.	32ff#\	.
.	.	.	.	.	.	32gg\	.
.	.	.	.	.	.	32aa\	.
.	.	.	.	.	.	32bb-\	.
.	.	.	.	.	.	32aa\	.
.	.	.	.	.	.	32bb-\	.
.	.	.	.	.	.	32ccc\JJ	.
8r	.	8r	.	8r	.	8ddd\J)	.
4r	.	4r	.	4r	.	4r	.
8r	.	8r	.	8r	.	8r	.
4r	.	4r	.	4r	.	4r	.
8r	.	8r	.	8r	.	8r	.
=105	=105	=105	=105	=105	=105	=105	=105
16GG#/LL	ff	16Bn/LL	ff	[4.d/ 4.dd/	ff	2.fff\	ff
16GG#/	.	16B/	.	.	.	.	.
16GG#/	.	16B/	.	.	.	.	.
16GG#/	.	16B/	.	.	.	.	.
16GG#/	.	16B/	.	.	.	.	.
16GG#/JJ	.	16B/JJ	.	.	.	.	.
4.GG#/	.	4.B/	.	4.d/] 4.dd/	.	.	.
4.AA/	p	4.G/	p	16B-/LL	p	4.c#/	p
.	.	.	.	16A/	.	.	.
.	.	.	.	16A'/	.	.	.
.	.	.	.	16A'/	.	.	.
.	.	.	.	16A/	.	.	.
.	.	.	.	16A/JJ	.	.	.
=106	=106	=106	=106	=106	=106	=106	=106
4DD/	.	8F/L	.	4A/	.	4d/	.
.	.	8A/	.	.	.	.	.
8r	.	8A/J	.	8r	.	8r	.
4r	.	8A/L	.	4r	.	4r	.
.	.	8A/	.	.	.	.	.
8r	.	8A/J	.	8r	.	8r	.
4r	.	8A/L	.	4r	.	16d/LL	.
.	.	.	.	.	.	16f/	.
.	.	8A/	.	.	.	16a/	.
.	.	.	.	.	.	16dd/	.
8r	.	8A/J	.	8r	.	16ee/	.
.	.	.	.	.	.	16ff/JJ	.
=107	=107	=107	=107	=107	=107	=107	=107
4.AA/	.	8c#/L	.	16g/LL	.	4ff\	.
.	.	.	.	16b-/	.	.	.
.	.	8A/	.	16cc#/	.	.	.
.	.	.	.	16b-/	.	.	.
.	.	8A/J	.	16cc#/	.	8ee\	.
.	.	.	.	16g/JJ	.	.	.
4D/	.	8A/L	.	4f/	.	4dd\	.
.	.	8A/	.	.	.	.	.
8r	.	8A/J	.	8r	.	8r	.
4r	.	8A/L	.	4r	.	(24d/LL	.
.	.	.	.	.	.	24f/	.
.	.	.	.	.	.	24a/JJ	.
.	.	8A/	.	.	.	24cc#\LL	.
.	.	.	.	.	.	24dd\	.
.	.	.	.	.	.	24ee\JJ	.
8r	.	8A/J	.	8r	.	40ff\LLL	.
.	.	.	.	.	.	40gg#\	.
.	.	.	.	.	.	40aa\	.
.	.	.	.	.	.	40ff\	.
.	.	.	.	.	.	40dd\JJJ)	.
=108	=108	=108	=108	=108	=108	=108	=108
4.AA/	.	8c#/L	.	16g/LL	.	(4ff\	.
.	.	.	.	16b-/	.	.	.
.	.	8A/	.	16cc#/	.	.	.
.	.	.	.	16b-/	.	.	.
.	.	8A/J	.	16cc#/	.	8ee\	.
.	.	.	.	16g/JJ	.	.	.
4D/	.	8A/L	.	8f/L	.	4dd\)	.
.	.	8A/	.	8a'/	.	.	.
8r	.	8A/J	.	8a'/J	.	8r	.
4r	.	8A/L	.	8a/L	.	(24d/LL	.
.	.	.	.	.	.	24f/	.
.	.	.	.	.	.	24a/JJ	.
.	.	8F/	.	8f/	.	24cc#\LL	.
.	.	.	.	.	.	24dd\	.
.	.	.	.	.	.	24ee\JJ	.
8r	.	8D/J	.	8d/J	.	24ff#\LL	.
.	.	.	.	.	.	24gg#\	.
.	.	.	.	.	.	24aa\JJ)	.
=109	=109	=109	=109	=109	=109	=109	=109
[2.AA/	.	[2.E/ [2.G/	.	[2.c#/	.	(16bb-\LL	.
.	.	.	.	.	.	16gg\	.
.	.	.	.	.	.	16ee\	.
.	.	.	.	.	.	16cc#\	.
.	.	.	.	.	.	16gg\	.
.	.	.	.	.	.	16ee\JJ)	.
.	.	.	.	.	.	(16cc#\LL	.
.	.	.	.	.	.	16b-\J	.
.	.	.	.	.	.	[8ee\	.
.	.	.	.	.	.	32ee\LL]	.
.	.	.	.	.	.	32cc#\	.
.	.	.	.	.	.	32b-\	.
.	.	.	.	.	.	32g\JJJ	.
4.AA/]	.	4.E/] 4.G/]	.	4.c#/]	.	32cc#/LLL	.
.	.	.	.	.	.	32b-/	.
.	.	.	.	.	.	32g/	.
.	.	.	.	.	.	32e/JJJ	.
.	.	.	.	.	.	[8b-/L	.
.	.	.	.	.	.	32b-/LL]	.
.	.	.	.	.	.	32g/	.
.	.	.	.	.	.	32e/	.
.	.	.	.	.	.	32c#/JJJ)	.
=110	=110	=110	=110	=110	=110	=110	=110
4DD/	pp	4F/	pp	4A/	pp	4d/	pp
8r	.	8r	.	8r	.	8r	.
4D\	.	4F/	.	4A/	.	4d/	.
8r	.	8r	.	8r	.	8r	.
4r	.	4r	.	4r	.	4r	.
8r	.	8r	.	8r	.	8r	.
==	==	==	==	==	==	==	==
*-	*-	*-	*-	*-	*-	*-	*-
!!!ENC: Craig Stuart Sapp
!!!END: 2004/09/06/
!!!RWG: shorthand for repeated notes not expanded
